X:1
T: Balinamona and Ora
C:
R:Jig
Q:180
K:D
M:6/8
L:1/16
|:A2|D2F2D2 d2c2d2|e2c2A2 d4f2|e2d2c2 B2c2d2|A2F2D2 F4A2|
D2F2D2 d2c2d2|e2c2A2 d4f2|e2d2c2 B2c2d2|A2F2D2 F4:|
|:GA|B2G2E2 E2G2B2|B6 G4G2|A2F2D2 D2F2A2|A6 F4F2|
B2G2E2 E2G2B2|e6 c4A2|d2A2F2 G2E2C2|D6 D4:|
